X:1
T: Craigellachie
C:
R:Strathspey
Q: 128
K:D
M:4/4
L:1/16
|:d2e2|f4 e3d Af3 e3d|Be3 d3B A4 f2g2|a4 b3a a2f2 e3d|e8 a6g2|
f4 e3d B2g2 e3d|e2d2 d3B A4 b2b2|a4 g2f2 g2f2 e3d|d12 A2A2|
e6f2 g4 f2e2|f6g2 a4 a2a2|b3a g2f2 g2f2 e2d2|e4 f4 g4 f2e2|
dA3 A3A B2e2 d2B2|A2B2 d2g2 b4 d'2b2|a4 g2f2 g2f2 e3d|d12:|
